X:40
T: Royal County (The)
C: Peter Fitzgerald
Z: B.Black
R: reel
M: 4/4
L: 1/8
K: G
BAGE DG G2 | ADFA G3 B | dG G2 cAAG | FGAG FD D2 |
BAGE DG G2 | ADFA G2 AG | FAde defe | dcAF G2 GA :|
Bd d2 edBA | Bded edBG | FA A2 ABAG | FGAG FD D2 |
Bd d2 edBA | Bded efga | gabg gfdg | fdcA G2 GA :|
